client/src/assets/beer.svg

<svg width="175" height="169" viewBox="0 0 175 169" fill="none" xmlns="http://www.w3.org/2000/svg">
<path d="M38.2511 21.3251C29.2589 55.2443 5.8493 73.7863 1.51511 90.1338C-2.81909 106.481 -2.70451 143.347 71.0366 163.677C144.778 184.007 167.844 140.812 172.606 122.829C194.93 38.6428 54.1781 -38.7511 38.2511 21.3251V21.3251Z" fill="#EFEFEF"/>
<path d="M37.3495 75.9021C32.5349 75.9021 28.752 72.6169 28.752 68.4357V39.1677C28.752 32.8959 34.9422 27.8188 42.1641 28.1175C45.6032 28.1175 49.0422 29.6107 51.4495 31.7013C51.1056 30.5067 50.7617 29.3121 50.7617 27.8188C51.1056 20.3525 58.3276 14.3794 66.9251 14.3794C73.4593 14.3794 79.3056 18.2619 81.369 23.6377C87.9032 18.5605 97.8763 19.1579 103.723 25.1309C104.41 26.0269 105.442 26.9229 105.786 27.8188C108.193 26.3255 110.601 25.7282 113.696 25.7282C120.918 25.7282 126.764 30.8054 126.764 37.0771C126.764 39.765 125.732 42.1542 123.669 44.2448L122.637 45.4394H98.2202C98.2202 45.738 98.2202 45.738 98.2202 46.0367C98.2202 47.2313 98.2202 48.1273 98.2202 49.3219C98.2202 49.9192 98.2202 50.5165 98.2202 50.8151C98.2202 58.2815 90.9983 64.2546 82.0568 64.2546C74.8349 64.2546 68.3007 59.4761 66.9251 53.2044C63.83 58.8788 55.9202 61.268 49.3861 58.5801C48.0105 57.9828 46.9788 57.3855 45.9471 56.4896V68.7344C45.9471 72.9155 42.1641 76.2007 37.3495 75.9021Z" fill="white"/>
<path d="M98.2199 45.4392H84.8077C84.8077 45.7379 84.8077 45.7379 84.8077 46.0365C84.8077 47.2311 84.8077 48.1271 84.8077 49.3217C84.8077 49.919 84.8077 50.5163 84.8077 50.815C84.8077 55.8921 81.0247 60.6705 75.8662 62.7611C77.9296 63.6571 80.3369 63.9557 82.4004 63.9557C90.9979 63.9557 98.2199 57.9827 98.2199 50.5163C98.2199 50.2177 98.2199 49.6204 98.2199 49.0231C98.2199 47.8284 98.2199 46.9325 98.2199 45.7379C98.2199 45.7379 98.2199 45.7379 98.2199 45.4392Z" fill="#F7EEBA"/>
<path d="M113.695 26.0269C111.288 26.0269 109.225 26.6242 107.161 27.5201C113.351 30.5067 115.415 37.077 111.976 42.4528C111.632 43.0501 110.944 43.6474 110.6 44.2447L109.568 45.4393H122.981L124.012 44.2447C126.076 42.1542 127.107 39.7649 127.107 37.077C126.764 31.104 120.917 26.0269 113.695 26.0269Z" fill="#F7EEBA"/>
<path d="M52.4804 149.968C45.9463 150.565 40.0999 146.683 39.4121 141.008C39.4121 140.112 39.4121 139.515 39.4121 138.619V76.2003L41.4755 75.3043C44.5706 74.1097 46.2902 71.4218 46.2902 68.734V57.6838L50.7609 59.177C52.1365 59.4757 53.5121 59.7743 55.2316 59.7743C58.3267 59.7743 61.7658 58.8784 64.1731 57.0865L67.2682 54.6972L69.3316 57.6838C72.0828 61.8649 77.2414 64.2542 82.7438 64.2542C91.3414 64.2542 98.5633 58.2811 98.5633 50.8147C98.5633 50.5161 98.5633 49.9188 98.5633 49.3215L98.9072 45.439H121.605C123.668 45.439 125.388 46.9322 125.388 48.7242V138.619C126.076 144.293 121.605 149.37 115.071 149.968C114.039 149.968 113.351 149.968 112.319 149.968H52.4804Z" fill="#FBCF4C"/>
<path d="M121.261 45.4392H103.035C105.098 45.4392 106.474 46.9325 106.474 48.7244V138.619C107.161 144.294 102.691 149.371 96.1565 149.968C95.1248 149.968 94.437 149.968 93.4053 149.968H111.632C118.166 150.565 124.013 146.683 124.7 141.008C124.7 140.112 124.7 139.515 124.7 138.619V48.7244C124.7 46.9325 123.325 45.4392 121.261 45.4392Z" fill="#EDB248"/>
<path d="M125.044 134.139V117.414H137.424C145.334 117.414 146.022 110.545 146.022 107.559V87.8477C146.022 84.8612 145.334 77.9921 137.424 77.9921H125.044V61.5662H147.742C157.715 61.5662 163.561 68.1365 163.561 79.4854V115.921C163.561 127.27 157.715 133.84 147.742 133.84L125.044 134.139Z" fill="#FBCF4C"/>
<path d="M147.742 61.5667H136.737C146.71 61.5667 152.557 68.137 152.557 79.4859V115.922C152.557 127.27 146.71 133.841 136.737 133.841H147.742C157.715 133.841 163.562 127.27 163.562 115.922V79.4859C163.562 68.137 157.715 61.5667 147.742 61.5667Z" fill="#EDB248"/>
<path d="M147.741 58.5801H128.483V48.7245C128.483 47.5299 128.139 46.3353 127.451 45.4393C129.515 43.0501 130.546 40.3622 130.546 37.3757C130.546 29.312 122.98 23.0403 113.695 23.0403C111.632 23.0403 109.224 23.3389 107.505 24.2349C101.659 17.9632 91.6854 15.8726 83.4317 19.7551C77.9293 11.9901 65.8927 9.60088 56.9512 14.678C52.1366 17.3659 49.0415 21.547 48.3537 26.3255C39.7561 23.6376 30.1268 27.2214 27.0317 34.6878C26.3439 36.1811 26 37.973 26 39.4663V68.7343C26 73.8114 30.4707 78.2912 36.3171 78.8885V138.619C35.6293 145.787 41.8195 152.357 50.0732 152.955C51.1049 152.955 51.7927 152.955 52.8244 152.955H112.32C120.573 153.552 128.139 148.176 128.827 141.009C128.827 140.113 128.827 139.515 128.827 138.619V137.126H147.741C159.778 137.126 167 129.361 167 116.22V79.4858C167 66.3451 159.778 58.5801 147.741 58.5801ZM121.605 138.619C122.293 142.8 119.198 146.384 114.383 146.981C113.695 146.981 112.663 146.981 111.976 146.981H52.4805C47.6659 147.579 43.539 144.891 42.8512 140.709C42.8512 140.112 42.8512 139.216 42.8512 138.619V77.9922C46.978 76.2003 49.7293 72.6164 49.7293 68.7339V61.8649C55.5756 63.6568 61.7659 62.4622 66.2366 59.177C71.739 66.942 83.4317 69.6299 92.7171 64.8514C98.2195 61.8649 101.659 56.4891 102.002 50.8147C102.002 50.5161 102.002 49.9188 102.002 49.6201C102.002 49.3215 102.002 49.0228 102.002 48.7241H121.605C121.605 48.7241 121.949 48.7241 121.949 49.0228V138.619H121.605V138.619ZM121.261 42.4528H98.2195C96.1561 42.4528 94.7805 43.6474 94.7805 45.4393C94.7805 45.738 94.7805 45.738 94.7805 46.0366V46.3353C94.7805 47.2312 94.7805 48.1272 94.7805 49.0232C94.7805 49.6205 94.7805 50.2178 94.7805 50.8151C94.7805 56.7882 88.9341 61.268 82.0561 61.268C76.2098 61.268 71.3951 57.6841 70.3634 52.607C70.0195 51.4124 68.9878 50.2178 67.2683 50.2178C65.8927 50.2178 64.5171 50.8151 63.8293 52.0097C61.422 56.1909 55.5756 57.9828 50.761 55.8922C49.7293 55.5936 49.0415 54.9962 48.3537 54.3989C46.978 53.2043 44.9146 53.2043 43.539 54.3989C42.8512 54.9962 42.5073 55.5936 42.5073 56.4895V68.7343C42.5073 71.1235 40.1 73.2141 37.3488 73.2141C34.5976 73.2141 32.1902 71.1235 32.1902 68.7343V39.4663C32.1902 34.6878 37.0049 31.1039 42.1634 31.4026C44.9146 31.4026 47.322 32.5972 49.0415 34.0905C50.4171 35.2851 52.4805 35.5838 53.8561 34.3891C54.8878 33.4932 55.2317 32.2986 54.8878 31.1039C54.5439 30.208 54.2 29.0134 54.2 28.1174C54.2 22.1443 59.7024 17.3659 66.2366 17.3659C71.739 17.3659 76.5537 20.3524 78.2732 24.8322C78.961 26.3255 80.6805 27.2214 82.7439 26.6241C83.0878 26.6241 83.4317 26.3255 83.7756 26.0268C88.9341 22.1443 96.8439 22.7416 100.971 27.5201C101.659 28.1174 102.002 29.0134 102.69 29.6107C103.378 31.1039 105.441 31.7013 107.161 30.8053L107.505 30.5066C109.224 29.6107 111.288 29.0134 113.351 29.0134C118.51 29.0134 122.98 32.5972 122.98 37.077C123.668 39.1676 122.637 40.9595 121.261 42.4528ZM128.483 81.2778H137.424C140.863 81.2778 142.583 83.667 142.583 88.1468V107.858C142.583 112.338 140.863 114.727 137.424 114.727H128.483V81.2778ZM160.122 116.22C160.122 121.894 158.402 131.153 147.741 131.153H128.483V120.401H137.424C144.99 120.401 149.461 115.623 149.461 107.559V87.8478C149.461 80.0828 144.99 75.0057 137.424 75.0057H128.483V64.5528H147.741C158.402 64.5528 160.122 73.8111 160.122 79.4855V116.22Z" fill="#4A2328"/>
<path d="M57.6392 73.2141C55.5758 73.2141 54.2002 74.4087 54.2002 76.2006V125.18C54.2002 126.972 55.5758 128.166 57.6392 128.166C59.7026 128.166 61.0782 126.972 61.0782 125.18V76.2006C61.0782 74.4087 59.3587 73.2141 57.6392 73.2141Z" fill="#4A2328"/>
<path d="M73.8033 73.2141C71.7399 73.2141 70.3643 74.4087 70.3643 76.2006V125.18C70.3643 126.972 71.7399 128.166 73.8033 128.166C75.8667 128.166 77.2423 126.972 77.2423 125.18V76.2006C77.2423 74.4087 75.8667 73.2141 73.8033 73.2141Z" fill="#4A2328"/>
<path d="M90.3101 73.2141C88.2467 73.2141 86.8711 74.4087 86.8711 76.2006V125.18C86.8711 126.972 88.2467 128.166 90.3101 128.166C92.3735 128.166 93.7491 126.972 93.7491 125.18V76.2006C93.7491 74.4087 92.0296 73.2141 90.3101 73.2141Z" fill="#4A2328"/>
<path d="M106.473 73.2141C104.41 73.2141 103.034 74.4087 103.034 76.2006V125.18C103.034 126.972 104.41 128.166 106.473 128.166C108.537 128.166 109.912 126.972 109.912 125.18V76.2006C109.912 74.4087 108.537 73.2141 106.473 73.2141Z" fill="#4A2328"/>
<path d="M22.8333 29.6667C19.6172 29.6667 17 27.0495 17 23.8333C17 20.6172 19.6172 18 22.8333 18C26.0494 18 28.6667 20.6172 28.6667 23.8333C28.6667 27.0495 26.0494 29.6667 22.8333 29.6667ZM22.8333 21.8889C21.76 21.8889 20.8889 22.76 20.8889 23.8333C20.8889 24.9067 21.76 25.7778 22.8333 25.7778C23.9067 25.7778 24.7778 24.9067 24.7778 23.8333C24.7778 22.76 23.9067 21.8889 22.8333 21.8889Z" fill="#A4AFC1"/>
</svg>

<svg width="175" height="169" fill="none" xmlns="http://www.w3.org/2000/svg"><path d="M38.251 21.325C29.26 55.245 5.85 73.786 1.515 90.134c-4.334 16.347-4.22 53.213 69.522 73.543 73.741 20.33 96.807-22.865 101.569-40.848C194.93 38.643 54.178-38.751 38.251 21.325z" fill="#EFEFEF"/><path d="M37.35 75.902c-4.815 0-8.598-3.285-8.598-7.466V39.168c0-6.272 6.19-11.35 13.412-11.05 3.44 0 6.878 1.493 9.285 3.583-.343-1.194-.687-2.389-.687-3.882.344-7.466 7.566-13.44 16.163-13.44 6.534 0 12.38 3.883 14.444 9.259 6.534-5.078 16.507-4.48 22.354 1.493.687.896 1.719 1.792 2.063 2.688 2.407-1.493 4.815-2.09 7.91-2.09 7.222 0 13.068 5.076 13.068 11.348 0 2.688-1.032 5.077-3.095 7.168l-1.032 1.194H98.22v5.376c0 7.467-7.222 13.44-16.163 13.44-7.222 0-13.756-4.779-15.132-11.05-3.095 5.674-11.005 8.063-17.539 5.375-1.376-.597-2.407-1.194-3.439-2.09v12.244c0 4.181-3.783 7.467-8.598 7.168z" fill="#fff"/><path d="M98.22 45.44H84.808v5.375c0 5.077-3.783 9.855-8.942 11.946 2.064.896 4.47 1.195 6.534 1.195 8.598 0 15.82-5.973 15.82-13.44v-1.493-3.285-.299zM113.695 26.027c-2.407 0-4.47.597-6.534 1.493 6.19 2.987 8.254 9.557 4.815 14.933-.344.597-1.032 1.194-1.376 1.792l-1.032 1.194h13.413l1.031-1.194c2.064-2.09 3.095-4.48 3.095-7.168-.343-5.973-6.19-11.05-13.412-11.05z" fill="#F7EEBA"/><path d="M52.48 149.968c-6.534.597-12.38-3.285-13.068-8.96V76.2l2.063-.896c3.096-1.194 4.815-3.882 4.815-6.57v-11.05l4.47 1.493c1.377.299 2.752.597 4.472.597 3.095 0 6.534-.896 8.941-2.688l3.095-2.389 2.064 2.987c2.75 4.18 7.91 6.57 13.412 6.57 8.597 0 15.82-5.973 15.82-13.44v-1.492l.343-3.883h22.698c2.063 0 3.783 1.493 3.783 3.285v89.895c.688 5.674-3.783 10.751-10.317 11.349H52.48z" fill="#FBCF4C"/><path d="M121.261 45.44h-18.226c2.063 0 3.439 1.492 3.439 3.284v89.895c.687 5.675-3.783 10.752-10.318 11.349h-2.75 18.226c6.534.597 12.381-3.285 13.068-8.96V48.724c0-1.791-1.375-3.285-3.439-3.285z" fill="#EDB248"/><path d="M125.044 134.139v-16.725h12.38c7.91 0 8.598-6.869 8.598-9.855V87.848c0-2.987-.688-9.856-8.598-9.856h-12.38V61.566h22.698c9.973 0 15.819 6.57 15.819 17.92v36.435c0 11.349-5.846 17.919-15.819 17.919l-22.698.299z" fill="#FBCF4C"/><path d="M147.742 61.567h-11.005c9.973 0 15.82 6.57 15.82 17.919v36.436c0 11.348-5.847 17.919-15.82 17.919h11.005c9.973 0 15.82-6.571 15.82-17.919V79.486c0-11.349-5.847-17.92-15.82-17.92z" fill="#EDB248"/><path d="M147.741 58.58h-19.258v-9.855c0-1.195-.344-2.39-1.032-3.286 2.064-2.389 3.095-5.077 3.095-8.063 0-8.064-7.566-14.336-16.851-14.336-2.063 0-4.471.299-6.19 1.195-5.846-6.272-15.82-8.362-24.073-4.48-5.503-7.765-17.54-10.154-26.48-5.077-4.815 2.688-7.91 6.869-8.598 11.648-8.598-2.688-18.227.895-21.322 8.362C26.344 36.18 26 37.973 26 39.466v29.268c0 5.077 4.47 9.557 10.317 10.154v59.731c-.688 7.168 5.502 13.738 13.756 14.336h62.247c8.253.597 15.819-4.779 16.507-11.946v-3.883h18.914c12.037 0 19.259-7.765 19.259-20.906V79.486c0-13.14-7.222-20.906-19.259-20.906zm-26.136 80.039c.688 4.181-2.407 7.765-7.222 8.362H52.481c-4.815.598-8.942-2.09-9.63-6.271V77.992c4.127-1.792 6.878-5.376 6.878-9.258v-6.87c5.847 1.793 12.037.598 16.508-2.687 5.502 7.765 17.195 10.453 26.48 5.674 5.502-2.986 8.942-8.362 9.285-14.036V49.62v-.896h19.603s.344 0 .344.299v89.596h-.344zm-.344-96.166H98.22c-2.064 0-3.44 1.194-3.44 2.986v5.376c0 5.973-5.846 10.453-12.724 10.453-5.846 0-10.66-3.584-11.693-8.661-.344-1.195-1.375-2.39-3.095-2.39-1.375 0-2.75.598-3.439 1.793-2.407 4.18-8.253 5.973-13.068 3.882-1.032-.298-1.72-.896-2.407-1.493a3.682 3.682 0 00-4.815 0c-.688.597-1.032 1.195-1.032 2.09v12.245c0 2.39-2.407 4.48-5.158 4.48-2.751 0-5.159-2.09-5.159-4.48V39.466c0-4.778 4.815-8.362 9.973-8.063 2.752 0 5.159 1.194 6.879 2.688 1.375 1.194 3.438 1.493 4.814.298 1.032-.896 1.376-2.09 1.032-3.285-.344-.896-.688-2.09-.688-2.987 0-5.973 5.502-10.751 12.037-10.751 5.502 0 10.317 2.986 12.036 7.466.688 1.494 2.407 2.39 4.47 1.792.345 0 .689-.298 1.033-.597 5.158-3.883 13.068-3.285 17.195 1.493.688.597 1.031 1.493 1.719 2.09.688 1.494 2.751 2.091 4.471 1.195l.344-.298c1.719-.896 3.783-1.494 5.846-1.494 5.159 0 9.629 3.584 9.629 8.064.688 2.09-.343 3.883-1.719 5.376zm7.222 38.825h8.941c3.439 0 5.159 2.389 5.159 6.869v19.711c0 4.48-1.72 6.869-5.159 6.869h-8.941v-33.45zm31.639 34.942c0 5.674-1.72 14.933-12.381 14.933h-19.258v-10.752h8.941c7.566 0 12.037-4.778 12.037-12.842V87.848c0-7.765-4.471-12.842-12.037-12.842h-8.941V64.553h19.258c10.661 0 12.381 9.258 12.381 14.933v36.734z" fill="#4A2328"/><path d="M57.64 73.214c-2.064 0-3.44 1.195-3.44 2.987v48.979c0 1.792 1.376 2.986 3.44 2.986 2.063 0 3.438-1.194 3.438-2.986V76.2c0-1.791-1.72-2.986-3.439-2.986zM73.803 73.214c-2.063 0-3.439 1.195-3.439 2.987v48.979c0 1.792 1.376 2.986 3.44 2.986 2.063 0 3.438-1.194 3.438-2.986V76.2c0-1.791-1.375-2.986-3.439-2.986zM90.31 73.214c-2.063 0-3.439 1.195-3.439 2.987v48.979c0 1.792 1.376 2.986 3.44 2.986 2.063 0 3.438-1.194 3.438-2.986V76.2c0-1.791-1.72-2.986-3.439-2.986zM106.473 73.214c-2.063 0-3.439 1.195-3.439 2.987v48.979c0 1.792 1.376 2.986 3.439 2.986 2.064 0 3.439-1.194 3.439-2.986V76.2c0-1.791-1.375-2.986-3.439-2.986z" fill="#4A2328"/><path d="M22.833 29.667A5.84 5.84 0 0117 23.833 5.84 5.84 0 0122.833 18a5.84 5.84 0 015.834 5.833 5.84 5.84 0 01-5.834 5.834zm0-7.778a1.945 1.945 0 10.002 3.89 1.945 1.945 0 00-.002-3.89z" fill="#A4AFC1"/></svg>
